X: 48
T:Missa Veni sancte spiritus / Credo
N: Derived from Jos0406c-Missa_Veni_sancte_spiritus-Credo.krn
C: Josquin des Prez
%%abc-version 2.0
%%abcx-abcm2ps-target-version 5.9.1 (29 Sep 2008)
%%abc-creator hum2abc beta
%%abcx-conversion-date 2019/02/12 16:15:40
%%abc-edited-by Jesse Rodin
%%abc-edited-by Victoria Chang 2011/05/04
%%abcx-initial-encoding-date 2011/05/04/
%%humdrum-veritas 26643188
%%humdrum-veritas-data 2630332453
%%linebreak <none>
%%barnumbers 0
L: 1/4
M: 2/1
Q: 1/2=120
V: 1 clef=treble
V: 2 clef=treble-8
V: 3 clef=treble-8
V: 4 clef=bass
V: 5 clef=bass
K: C
[V:1] z8 | 
[V:2] d4d2d2 | 
[V:3] z8 | 
[V:4] z8 | 
[V:5] z8 | 
[V:1] G4G2G2 | 
[V:2] B2B2c4- | 
[V:3] z8 | 
[V:4] z8 | 
[V:5] z8 | 
[V:1] E2E2F3D | 
[V:2] c2A2A4 | 
[V:3] z8 | 
[V:4] z8 | 
[V:5] z4D,4 | 
[V:1] D4z2D2 | 
[V:2] z2A2B2B2 | 
[V:3] z8 | 
[V:4] z4G,4 | 
[V:5] D,2D,2B,,2B,,2 | 
[V:1] E2E2E4 | 
[V:2] G4c4 | 
[V:3] z8 | 
[V:4] G,2G,2E,2E,2 | 
[V:5] C,6A,,2- | 
[V:1] C2F3GA2- | 
[V:2] z2A3Bc2 | 
[V:3] z8 | 
[V:4] F,3D,D,2E,2 | 
[V:5] A,,2D,4C,2 | 
[V:1] AGG4^F2 | 
[V:2] ABcB/c/d4 | 
[V:3] z8 | 
[V:4] F,2G,2A,4 | 
[V:5] F,2E,2D,4 | 
[V:1] G4z2D2- | 
[V:2] B6B2 | 
[V:3] z4G4- | 
[V:4] G,4D,2G,2- | 
[V:5] G,,8 | 
[V:1] D2E2E2E2 | 
[V:2] B2G2c4- | 
[V:3] G2G2G2G2 | 
[V:4] G,F,E,D,E,2C,2 | 
[V:5] z2C,4C,2 | 
[V:1] E4C2c2- | 
[V:2] c4c3B | 
[V:3] E4F4- | 
[V:4] G,4z4 | 
[V:5] C,2C,2A,,4- | 
[V:1] c2d3cBA | 
[V:2] A2G2d4 | 
[V:3] F2D2D4 | 
[V:4] z8 | 
[V:5] A,,2B,,3G,,G,,2 | 
[V:1] A4z4 | 
[V:2] c2A3Bc2 | 
[V:3] F3EFGA2- | 
[V:4] A,3G,F,2E,2- | 
[V:5] z2D,4C,2 | 
[V:1] z8 | 
[V:2] d2B2c2c2 | 
[V:3] A2G4^F2 | 
[V:4] E,D,D,4C,2 | 
[V:5] B,,2G,,2A,,2A,,2 | 
[V:1] z2B4B2 | 
[V:2] B2d4d2 | 
[V:3] G4z2G2- | 
[V:4] D,4G,3G, | 
[V:5] G,,4z2G,,2- | 
[V:1] B2B2e3e | 
[V:2] g2g2g3g | 
[V:3] G2G2G2G2 | 
[V:4] B,2B,2C3C | 
[V:5] G,,2G,,2C,2C,2 | 
[V:1] e2e2d4 | 
[V:2] g2g4d2 | 
[V:3] G3GG2G2 | 
[V:4] C2C2D2B,2 | 
[V:5] C,3C,B,,2B,,2 | 
[V:1] c4B2G2 | 
[V:2] f2e2g4 | 
[V:3] A2A2G4 | 
[V:4] C4z2B,2 | 
[V:5] A,,2A,,2E,4 | 
[V:1] A2B2c2A2 | 
[V:2] c2d2e2f2 | 
[V:3] z8 | 
[V:4] A,2F,2G,2F,2 | 
[V:5] F,2D,2C,2D,2 | 
[V:1] G2c2cBAG | 
[V:2] e2a3gg2- | 
[V:3] z8 | 
[V:4] G,2A,2F,2G,2 | 
[V:5] E,2F,4E,2 | 
[V:1] A2A2G2A2 | 
[V:2] g2^f2g2=f2 | 
[V:3] z8 | 
[V:4] D3CB,2A,2 | 
[V:5] D,2D,2G,,2D,2 | 
[V:1] A2A2c2c2 | 
[V:2] f2f2c2c2 | 
[V:3] z2A2A2A2 | 
[V:4] D2C2A,2C2- | 
[V:5] F,2F,2F,2F,2 | 
[V:1] G8 | 
[V:2] e4z2e2 | 
[V:3] c2c2G4- | 
[V:4] CB,G,2C4 | 
[V:5] E,3C,C,4 | 
[V:1] z2E4D2 | 
[V:2] d2c4B2 | 
[V:3] G4z2G2- | 
[V:4] B,2G,3A,B,2 | 
[V:5] G,,2C,4G,,2 | 
[V:1] E2D2E4- | 
[V:2] c2B2c4 | 
[V:3] G2G2G2G2 | 
[V:4] E,2G,2E,2C,2- | 
[V:5] C,2G,,2C,4 | 
[V:1] E2F2G4 | 
[V:2] c3de2f2- | 
[V:3] A4G4 | 
[V:4] C,2F,2E,2C,2 | 
[V:5] z4C,4 | 
[V:1] G4A4 | 
[V:2] feed/e/f4 | 
[V:3] G4F4- | 
[V:4] C4z2C2 | 
[V:5] C,4F,4 | 
[V:1] z2A4G2 | 
[V:2] z2f4e2 | 
[V:3] F4z4 | 
[V:4] D4A,2C2 | 
[V:5] D,4z4 | 
[V:1] F2E2D4 | 
[V:2] d2c3B/A/B2 | 
[V:3] z8 | 
[V:4] D2A,2F,2G,2 | 
[V:5] z8 | 
[V:1] C4z2F2 | 
[V:2] c2A2c2d2 | 
[V:3] z8 | 
[V:4] A,4z2D,2 | 
[V:5] z2F,2F,2F,2 | 
[V:1] F2F2G2G2 | 
[V:2] c2f3eed | 
[V:3] z8 | 
[V:4] F,2F,2C,2C,2 | 
[V:5] A,4G,4 | 
[V:1] A8 | 
[V:2] f8 | 
[V:3] z2F2F2F2 | 
[V:4] F,4z2A,2 | 
[V:5] F,2D,4D,2 | 
[V:1] z4z2c2 | 
[V:2] d4c2e2 | 
[V:3] G2G2A4- | 
[V:4] B,2B,2C2A,2 | 
[V:5] B,,4A,,4 | 
[V:1] c3BA2G2 | 
[V:2] f2c3Bc2 | 
[V:3] A4z4 | 
[V:4] C4z4 | 
[V:5] z2F,4E,2 | 
[V:1] F2E4E2 | 
[V:2] d2e2z2c2- | 
[V:3] z2c2c3B | 
[V:4] z4C,4 | 
[V:5] D,2C,2A,,4 | 
[V:1] F2G2A4 | 
[V:2] c2B2c2e2 | 
[V:3] A2G2F2E2 | 
[V:4] D,2E,2C,4 | 
[V:5] z4A,,4 | 
[V:1] z4z2A2 | 
[V:2] d2g4^f2 | 
[V:3] F2G2A4 | 
[V:4] D,2D4D2 | 
[V:5] D,2G,,2D,4 | 
[V:1] B2d3cBA | 
[V:2] g2d2g3f | 
[V:3] G8 | 
[V:4] B,3G,G,4 | 
[V:5] G,,8 | 
[V:1] G2c3BAG | 
[V:2] edc2f3e | 
[V:3] z8 | 
[V:4] C3B,A,G,F,2- | 
[V:5] z8 | 
[V:1] A2G2F4 | 
[V:2] dcc4B2 | 
[V:3] z8 | 
[V:4] F,2E,2D,4 | 
[V:5] z8 | 
[V:1] E8 | 
[V:2] c8 | 
[V:3] z2A4A2 | 
[V:4] C,4z4 | 
[V:5] A,,2A,,2C,2C,2 | 
[V:1] z8 | 
[V:2] z8 | 
[V:3] A2A2c3B | 
[V:4] F,2F,2G,3F, | 
[V:5] D,2D,2E,3D, | 
[V:1] z8 | 
[V:2] z8 | 
[V:3] AGG4^F2 | 
[V:4] E,2D,4C,2 | 
[V:5] C,2B,,2A,,4 | 
[V:1] z2B4B2 | 
[V:2] z2d4d2 | 
[V:3] G8 | 
[V:4] D,4D,2D,2 | 
[V:5] G,,8 | 
[V:1] c2A2G2E2 | 
[V:2] c2d2e2c2 | 
[V:3] z8 | 
[V:4] A,2F,2E,2A,2 | 
[V:5] z8 | 
[V:1] F2G3FED | 
[V:2] d2e2c2g2 | 
[V:3] z8 | 
[V:4] F,2E,2z2E,2 | 
[V:5] z8 | 
[V:1] C2G2A3G | 
[V:2] e2c2f3e | 
[V:3] z8 | 
[V:4] E,2E,2F,4 | 
[V:5] z4z2D,2- | 
[V:1] F2E2F2E2 | 
[V:2] d2c2d2e2 | 
[V:3] z2A2A3G | 
[V:4] z8 | 
[V:5] D,2A,,2D,2C,2 | 
[V:1] A4z4 | 
[V:2] ABcBAGG2- | 
[V:3] F2E2F2G2 | 
[V:4] z2A,3B,C2 | 
[V:5] D,2A,,2D,2E,2 | 
[V:1] z2A2B2G2 | 
[V:2] G2^F2G2B2 | 
[V:3] A4G4 | 
[V:4] D4B,4 | 
[V:5] D,4G,,4 | 
[V:1] c3BA2G2 | 
[V:2] A2c2d2e2 | 
[V:3] z8 | 
[V:4] z2A,2F,2E,2 | 
[V:5] z8 | 
[V:1] A4B4 | 
[V:2] c2d4e2 | 
[V:3] z8 | 
[V:4] F,4G,4 | 
[V:5] z4G,,4 | 
[V:1] A8 | 
[V:2] f2f2f2f2 | 
[V:3] F4F2F2 | 
[V:4] F,2A,2A,2F,2 | 
[V:5] D,6D,2 | 
[V:1] z4z2c2 | 
[V:2] e2d2c2e2 | 
[V:3] G2G2A4 | 
[V:4] C,2D,2E,2E,2 | 
[V:5] C,2B,,2A,,2A,,2 | 
[V:1] c3BAGB2- | 
[V:2] e2e2f2g2- | 
[V:3] z2c2d4 | 
[V:4] A,2A,2D,4 | 
[V:5] A,,2A,,2D,2G,,2- | 
[V:1] BAA4^G2 | 
[V:2] g2e2e4 | 
[V:3] d2c2B4 | 
[V:4] z2E,3F,G,2 | 
[V:5] G,,2A,,2E,4 | 
[V:1] A4A4 | 
[V:2] z2c2A2A2 | 
[V:3] A4c4 | 
[V:4] E,2A,4F,2 | 
[V:5] A,,2F,4F,2 | 
[V:1] G4A4 | 
[V:2] e4z4 | 
[V:3] c4A4 | 
[V:4] G,2E,2D,4 | 
[V:5] E,2C,2F,4 | 
[V:1] B4c4 | 
[V:2] e8 | 
[V:3] G4A4 | 
[V:4] z4C,4 | 
[V:5] E,4A,,4 | 
[V:1] c4A4 | 
[V:2] e4f2d2 | 
[V:3] G4F4 | 
[V:4] C,4F,4- | 
[V:5] C,4D,4- | 
[V:1] d3cB2A2 | 
[V:2] f3ed4 | 
[V:3] z2F2G2A2- | 
[V:4] F,4z2F,2 | 
[V:5] D,4z2D,2 | 
[V:1] c3BAGA2- | 
[V:2] e4f2e2 | 
[V:3] A2G2F2c2- | 
[V:4] C,2E,2D,2C,2 | 
[V:5] A,,2C,2D,2A,,2 | 
[V:1] AGG4^F2 | 
[V:2] ABcB/c/d4 | 
[V:3] cBAGA4 | 
[V:4] z2C,2F,3D, | 
[V:5] F,2E,2D,4 | 
[V:1] G8 ||  
[V:2] d8 ||  
[V:3] G8 ||  
[V:4] D,8 ||  
[V:5] G,,8 ||  
[V:1]  [K:C] [K:clef=treble][M:2/1]z8 | 
[V:2]  [K:C] [K:clef=treble-8][M:2/1]d4c4 | 
[V:3]  [K:C] [K:clef=treble-8][M:2/1]z8 | 
[V:4]  [K:C] [K:clef=bass][M:2/1]z8 | 
[V:5]  [K:C] [K:clef=bass][M:2/1]z8 | 
[V:1] z8 | 
[V:2] B4A2d2- | 
[V:3] z8 | 
[V:4] z8 | 
[V:5] G,4F,4 | 
[V:1] G4F4 | 
[V:2] d2^c2d4 | 
[V:3] z4z2d2- | 
[V:4] z8 | 
[V:5] E,4D,4 | 
[V:1] E4D3E | 
[V:2] z8 | 
[V:3] d2c2d4- | 
[V:4] z8 | 
[V:5] z2A,,2B,,3C, | 
[V:1] FGA3GG2- | 
[V:2] z4z2d2 | 
[V:3] d2c2B4 | 
[V:4] z8 | 
[V:5] D,2A,,2B,,2G,,2 | 
[V:1] G2^F2G4- | 
[V:2] d4B4 | 
[V:3] A4G4 | 
[V:4] z8 | 
[V:5] D,4G,,4 | 
[V:1] G4z4 | 
[V:2] z4d4 | 
[V:3] z4B4 | 
[V:4] G,8 | 
[V:5] z4G,,4 | 
[V:1] G4A4- | 
[V:2] e4e4 | 
[V:3] c4c4 | 
[V:4] E,4A,4- | 
[V:5] C,4A,,4 | 
[V:1] A2A2A4 | 
[V:2] f8 | 
[V:3] d8 | 
[V:4] A,4F,4 | 
[V:5] D,8 | 
[V:1] A4c4- | 
[V:2] e4e4- | 
[V:3] c2c3BAG | 
[V:4] A,4A,4- | 
[V:5] A,,4A,,4- | 
[V:1] c4B4 | 
[V:2] e4e4 | 
[V:3] A4B4 | 
[V:4] A,4G,4 | 
[V:5] A,,4E,4 | 
[V:1] z4G4- | 
[V:2] z4e4- | 
[V:3] z4B4- | 
[V:4] z4G,4- | 
[V:5] z4E,4- | 
[V:1] G4G4 | 
[V:2] e4e4 | 
[V:3] B4B4 | 
[V:4] G,4E,4 | 
[V:5] E,4E,4 | 
[V:1] A4G4 | 
[V:2] e4e4 | 
[V:3] c4c4 | 
[V:4] E,4E,4 | 
[V:5] A,,4C,4 | 
[V:1] A4A4 | 
[V:2] e4f4 | 
[V:3] c4c4 | 
[V:4] C,4C,4 | 
[V:5] A,,4A,,4 | 
[V:1] B8 ||  
[V:2] g8 ||  
[V:3] B8 ||  
[V:4] D,8 ||  
[V:5] G,,8 ||  
[V:1]  [K:C] [K:clef=treble][M:2/1]G4G2G2 | 
[V:2]  [K:C] [K:clef=treble-8][M:2/1]e4e2e2 | 
[V:3]  [K:C] [K:clef=treble-8][M:2/1]z8 | 
[V:4]  [K:C] [K:clef=bass][M:2/1]G,4G,2G,2 | 
[V:5]  [K:C] [K:clef=bass][M:2/1]E,4E,2E,2 | 
[V:1] A4B2G2 | 
[V:2] f3ed2e2- | 
[V:3] z8 | 
[V:4] F,2F,2G,3F, | 
[V:5] D,4G,,2C,2 | 
[V:1] A2B2c4 | 
[V:2] edg4^f2 | 
[V:3] z8 | 
[V:4] E,2D,4C,2 | 
[V:5] C,2B,,2A,,4 | 
[V:1] B4z2B2 | 
[V:2] g2g2g4 | 
[V:3] G8 | 
[V:4] D,4z2D,2 | 
[V:5] G,,4G,,4 | 
[V:1] c4B4 | 
[V:2] e2c2d4 | 
[V:3] G4G4 | 
[V:4] E,4D,4 | 
[V:5] C,4G,,4 | 
[V:1] c4d4 | 
[V:2] c4z4 | 
[V:3] A2A4^G2 | 
[V:4] E,4D,3E, | 
[V:5] C,4B,,4 | 
[V:1] c4z2c2 | 
[V:2] z2e4e2 | 
[V:3] A8 | 
[V:4] F,2E,2C,2C,2 | 
[V:5] A,,8 | 
[V:1] c2c2d4 | 
[V:2] e2e2d2g2- | 
[V:3] z8 | 
[V:4] C,2C,2G,2G,2 | 
[V:5] z8 | 
[V:1] c4B4 | 
[V:2] g2^f2g2d2 | 
[V:3] z8 | 
[V:4] A,4G,2G,2 | 
[V:5] z8 | 
[V:1] A2c4c2 | 
[V:2] e2e2c2e2 | 
[V:3] c4c2c2 | 
[V:4] C,2E,2A,2A,2 | 
[V:5] z2A,,4A,,2 | 
[V:1] A2B3AA2- | 
[V:2] f2g2e4- | 
[V:3] d2d2c4 | 
[V:4] A,2G,2C,4 | 
[V:5] D,2G,,2A,,2A,,2 | 
[V:1] A2^G2A4 | 
[V:2] e4z2e2 | 
[V:3] B4A4 | 
[V:4] z4C,4 | 
[V:5] E,4A,,4 | 
[V:1] z2A2A2A2 | 
[V:2] e2e2e2e2 | 
[V:3] z2c2c2c2 | 
[V:4] C,2C,2C,4 | 
[V:5] z2A,,2A,,2A,,2 | 
[V:1] G2E2F4 | 
[V:2] e2e2d4 | 
[V:3] c4z2A2- | 
[V:4] E,2G,2F,2D,2 | 
[V:5] C,4D,4 | 
[V:1] E2D2C4 | 
[V:2] z2d2e4 | 
[V:3] A2B3AA2- | 
[V:4] E,2F,2E,2C,2 | 
[V:5] C,2D,2A,,2C,2 | 
[V:1] z4z2c2 | 
[V:2] d4c2e2- | 
[V:3] A2^G2A4 | 
[V:4] D,4E,4 | 
[V:5] B,,4A,,2A,,2 | 
[V:1] c2c2A2B2- | 
[V:2] e2c2d4- | 
[V:3] z8 | 
[V:4] z8 | 
[V:5] A,3A,A,2G,2 | 
[V:1] BAA4^G2 | 
[V:2] d2c2B4 | 
[V:3] z8 | 
[V:4] z4E,3E, | 
[V:5] F,2D,2E,4 | 
[V:1] A8 | 
[V:2] A2e4f2 | 
[V:3] z2A2A2A2- | 
[V:4] E,2E,2E,2D,2 | 
[V:5] A,,3B,,C,2D,2 | 
[V:1] z2c2c3B | 
[V:2] e2c4A2- | 
[V:3] A2A2F2E2 | 
[V:4] E,4A,3G, | 
[V:5] C,2A,,2z2A,,2 | 
[V:1] A2G4^F2 | 
[V:2] ABc2d4 | 
[V:3] F2G2A2A2 | 
[V:4] F,2E,2F,2D,2 | 
[V:5] D,2E,2D,4 | 
[V:1] G4z4 | 
[V:2] z4d4 | 
[V:3] G8 | 
[V:4] D,4D,2D,2 | 
[V:5] G,,8 | 
[V:1] G4E4 | 
[V:2] B4c4 | 
[V:3] z8 | 
[V:4] E,4C,4 | 
[V:5] z8 | 
[V:1] F4D2F2 | 
[V:2] A4B2A2 | 
[V:3] z8 | 
[V:4] D,2F,2G,2A,2- | 
[V:5] z8 | 
[V:1] G2G2A4 | 
[V:2] B4A4 | 
[V:3] z8 | 
[V:4] A,G,G,4^F,2 | 
[V:5] z8 | 
[V:1] D4z4 | 
[V:2] G8 | 
[V:3] G4E4 | 
[V:4] G,4z4 | 
[V:5] z4C,3C, | 
[V:1] z8 | 
[V:2] z8 | 
[V:3] F2F2D4 | 
[V:4] C3CB,2B,2 | 
[V:5] A,,2A,,2B,,2G,,2 | 
[V:1] z8 | 
[V:2] z8 | 
[V:3] F4F2A2- | 
[V:4] A,2A,4E,2 | 
[V:5] A,,2D,4C,2 | 
[V:1] z4z2A2 | 
[V:2] z8 | 
[V:3] AGG4^F2 | 
[V:4] D,2E,2C,4 | 
[V:5] B,,2C,2A,,4 | 
[V:1] B2G2A2B2 | 
[V:2] d3ef2g2 | 
[V:3] G4z2G2 | 
[V:4] D,2D,2D,2D,2 | 
[V:5] G,,4z2G,,2 | 
[V:1] c2B3AG2- | 
[V:2] e2d2d4 | 
[V:3] G2G2G4 | 
[V:4] C,2D,2D,4- | 
[V:5] C,2G,,2G,,4 | 
[V:1] G2^F2G2d2- | 
[V:2] z2d4d2 | 
[V:3] A4G4 | 
[V:4] D,4z2D,2 | 
[V:5] D,4G,,4 | 
[V:1] d2d2c2B2 | 
[V:2] B2B2A2d2- | 
[V:3] z8 | 
[V:4] G,2D,2F,2G,2 | 
[V:5] z4z2G,2 | 
[V:1] A3GF2E2 | 
[V:2] d2c2d2A2 | 
[V:3] z8 | 
[V:4] D,2A,2A,3G, | 
[V:5] F,3E,D,2C,2 | 
[V:1] D2C2D4 | 
[V:2] B2A4^G2 | 
[V:3] z8 | 
[V:4] F,2E,4D,2 | 
[V:5] D,2A,,2B,,4 | 
[V:1] C4z4 | 
[V:2] A4z2f2 | 
[V:3] z2A2A2A2 | 
[V:4] E,2A,2C2D2 | 
[V:5] A,,2F,3E,D,2 | 
[V:1] z8 | 
[V:2] e2c3de2 | 
[V:3] c6G2 | 
[V:4] E2A,2A,2B,2 | 
[V:5] C,2F,4E,2 | 
[V:1] z4z2F2 | 
[V:2] c4B2A2 | 
[V:3] A4G2F2- | 
[V:4] A,4z4 | 
[V:5] F,4z2A,2 | 
[V:1] G2G2A3B | 
[V:2] B4A2c2- | 
[V:3] F2E2F4 | 
[V:4] z8 | 
[V:5] G,2G,2F,2A,2- | 
[V:1] c2d2c2B2- | 
[V:2] c2B2c2e2- | 
[V:3] z8 | 
[V:4] z4A,2G,2 | 
[V:5] A,2G,2A,2E,2 | 
[V:1] BAA4^G2 | 
[V:2] e2d2e2e2- | 
[V:3] z8 | 
[V:4] A,2A,2B,4 | 
[V:5] F,4E,4 | 
[V:1] A8 | 
[V:2] e2e2d2f2 | 
[V:3] E3EF2F2 | 
[V:4] A,8 | 
[V:5] A,,3A,,D,2D,2 | 
[V:1] z4z2c2 | 
[V:2] e2d2c2c2 | 
[V:3] G2G2A4 | 
[V:4] z4z2A,2 | 
[V:5] C,2B,,2A,,4 | 
[V:1] B2c4B2 | 
[V:2] d2e2f2g2- | 
[V:3] z8 | 
[V:4] B,2A,4G,2 | 
[V:5] z8 | 
[V:1] A4G4 | 
[V:2] g2^f2g2e2- | 
[V:3] z8 | 
[V:4] D4G,4 | 
[V:5] z2D,2E,2C,2- | 
[V:1] z8 | 
[V:2] efgf/e/d2a2- | 
[V:3] z2c2B2c2- | 
[V:4] z8 | 
[V:5] C,D,E,F,G,2F,2- | 
[V:1] z2d2d2d2 | 
[V:2] agg4^f2 | 
[V:3] c2B2A4 | 
[V:4] z8 | 
[V:5] F,2G,2D,4 | 
[V:1] B4G2G2 | 
[V:2] g2d2d2d2 | 
[V:3] G8 | 
[V:4] z2B,2B,2B,2 | 
[V:5] G,,8 | 
[V:1] c3BA2G2 | 
[V:2] e2c2d2B2 | 
[V:3] z8 | 
[V:4] CB,A,G,F,2G,2 | 
[V:5] z8 | 
[V:1] A8 | 
[V:2] c2d2c2f2- | 
[V:3] z8 | 
[V:4] F,2F,2A,3G, | 
[V:5] z2D,2F,3E, | 
[V:1] z2A2A2A2 | 
[V:2] f2e2f2f2 | 
[V:3] z4z2A2 | 
[V:4] F,2C,2F,4 | 
[V:5] D,2A,,2D,4 | 
[V:1] c3BA2G2 | 
[V:2] e8 | 
[V:3] A2A2c3B | 
[V:4] C,8 | 
[V:5] A,,4z2E,2 | 
[V:1] c2B3AA2- | 
[V:2] z2e4f2 | 
[V:3] A2G2c4 | 
[V:4] z2E,2C,2F,2 | 
[V:5] F,2G,2A,4 | 
[V:1] A2^G2A4 | 
[V:2] e4c4 | 
[V:3] B4A4 | 
[V:4] G,3E,E,4 | 
[V:5] E,4A,,4 | 
[V:1] [M:3/1]c4c4c4 | 
[V:2] [M:3/1]e4e4e4 | 
[V:3] [M:3/1]A4A4A4 | 
[V:4] [M:3/1]C,4E,4E,4 | 
[V:5] [M:3/1]A,,4A,,4A,,4 | 
[V:1] d8A4 | 
[V:2] f4d8 | 
[V:3] F8F4 | 
[V:4] D,8A,4 | 
[V:5] D,8D,4 | 
[V:1] c8A4 | 
[V:2] e4c4d4- | 
[V:3] E8F4 | 
[V:4] A,8A,4 | 
[V:5] A,,8D,4 | 
[V:1] B4c8 | 
[V:2] d4c4A4 | 
[V:3] G6^FE^F4 | 
[V:4] D,4E,4C,4 | 
[V:5] B,,4A,,8 | 
[V:1] B8z4 | 
[V:2] d8z4 | 
[V:3] G12 | 
[V:4] D,8z4 | 
[V:5] G,,8z4 | 
[V:1] d8c4 | 
[V:2] B8e4 | 
[V:3] z12 | 
[V:4] G,8E,4 | 
[V:5] G,,8A,,4 | 
[V:1] A4c4B4 | 
[V:2] c4c4d4 | 
[V:3] z12 | 
[V:4] A,4E,4G,4 | 
[V:5] A,,4A,,4G,,4 | 
[V:1] A8z4 | 
[V:2] f6e2d4 | 
[V:3] F4F2F2G2G2 | 
[V:4] A,8_B,4 | 
[V:5] D,8z4 | 
[V:1] c8B4 | 
[V:2] c2d2e2f2g4 | 
[V:3] A4c4d4 | 
[V:4] A,4A,4D,4 | 
[V:5] A,,8G,,4 | 
[V:1] A6^G^FG4 | 
[V:2] e12 | 
[V:3] c6BAB4 | 
[V:4] z12 | 
[V:5] A,,4E,8 | 
[V:1] [M:2/1]A4z2c2 | 
[V:2] [M:2/1]c3de2f2- | 
[V:3] [M:2/1]A8 | 
[V:4] [M:2/1]E,4C,2F,2- | 
[V:5] [M:2/1]A,,4z2A,2- | 
[V:1] c4A4 | 
[V:2] fee4d2 | 
[V:3] z8 | 
[V:4] F,G,A,4D,2 | 
[V:5] A,G,F,E,F,4 | 
[V:1] G8 | 
[V:2] e4z2g2 | 
[V:3] z2c2c4 | 
[V:4] G,2E,3D,C,2 | 
[V:5] E,2C,3D,E,2 | 
[V:1] z2c3BB2 | 
[V:2] f2e3fg2 | 
[V:3] A4G4 | 
[V:4] D,2C,2E,4 | 
[V:5] F,2C,3D,E,2 | 
[V:1] A3GF2E2 | 
[V:2] c2d4e2 | 
[V:3] z2A4A2 | 
[V:4] F,3E,D,2A,,2 | 
[V:5] A,,2D,4C,2 | 
[V:1] F4G4 | 
[V:2] d3cB4 | 
[V:3] A2A2G4 | 
[V:4] D,4z4 | 
[V:5] D,2F,4E,2 | 
[V:1] A4z2A2- | 
[V:2] A4z2A2- | 
[V:3] F4F3E | 
[V:4] z2D,2C,2F,2- | 
[V:5] F,2D,2A,,2D,2- | 
[V:1] A2G2A2c2 | 
[V:2] A2B2c2A2 | 
[V:3] F2G4^F2 | 
[V:4] F,E,D,2E,2C,2 | 
[V:5] D,C,B,,2A,,4 | 
[V:1] B8 | 
[V:2] d8 | 
[V:3] G8 | 
[V:4] D,2D3CB,A, | 
[V:5] G,,4z4 | 
[V:1] z4c4 | 
[V:2] d4f4 | 
[V:3] z4A4 | 
[V:4] B,4A,4 | 
[V:5] G,4F,4- | 
[V:1] c4c4 | 
[V:2] f8 | 
[V:3] A4A4 | 
[V:4] C4C4 | 
[V:5] F,4F,4 | 
[V:1] A4A4 | 
[V:2] f4f4 | 
[V:3] c4c4 | 
[V:4] C4A,4 | 
[V:5] F,4F,4 | 
[V:1] A4z2B2- | 
[V:2] f4g4 | 
[V:3] d8 | 
[V:4] A,4G,4 | 
[V:5] D,3C,B,,2G,,2 | 
[V:1] BAA4^G2 | 
[V:2] e4e4 | 
[V:3] c4B4 | 
[V:4] z8 | 
[V:5] A,,4E,4 | 
[V:1] A8 | 
[V:2] f3ed2c2 | 
[V:3] A8- | 
[V:4] z2F,3G,A,2- | 
[V:5] A,,2D,2F,3E, | 
[V:1] z2c3BA2 | 
[V:2] d2A2c2d2 | 
[V:3] A8 | 
[V:4] A,G,E,4F,2 | 
[V:5] D,2C,2A,,2D,2 | 
[V:1] G2A2E2c2- | 
[V:2] B2A2e4- | 
[V:3] z2c3BA2 | 
[V:4] G,2C,2z2C,2- | 
[V:5] E,2A,,2A,,4 | 
[V:1] cBA2G2A2 | 
[V:2] e8 | 
[V:3] G2A2E2c2- | 
[V:4] C,D,E,F,E,2C,2 | 
[V:5] z2A,,2C,2A,,2- | 
[V:1] E2c3BA2- | 
[V:2] z2e3dd2- | 
[V:3] cBA2G2F2 | 
[V:4] C,4z2F,2 | 
[V:5] A,,G,,A,,B,,C,2D,2 | 
[V:1] A2G4^F2 | 
[V:2] d2c2d4 | 
[V:3] G4A4 | 
[V:4] E,2C,2F,3D, | 
[V:5] E,4D,4 | 
[V:1] G8 |]  
[V:2] d8 |]  
[V:3] G8 |]  
[V:4] D,8 |]  
[V:5] G,,8 |]  



